!!!!SEGMENT: pl-kk--kk-i-296--001_anonim--tollite-portas.krn
!!!cenid: 17xx:2535
!!!COM: Anonim
!!!COM-rismID: pe30004985
!!!CDT:
!!!CNT:
!!!OTL: Tollite portas
!!!PDT:
!!!AGN: Sacred
!!!YEC: Copyright 2022 Narodowy Instytut Fryderyka Chopina (https://polishscores.org)
!!!YEM: License CC-BY-4.0 (https://creativecommons.org/licenses/by/4.0)
!!!SMS-siglum: PL-Kk
!!!SMS-shelfmark: Kk.I.296
!!!SMS-variant:
!!!SMS-altvar:
!!!SMS-shelfwork: 001 W
!!!NIFC-rismSourceID: 1001147512
!!!NIFC-rismChildID: 1001147508
!!!NIFC-islandoraID:
!!!URL-pdf-islandora: https://repozytorium.nifc.pl/islandora/object/pl-kk%3A5081/datastream/PDF/view
!!!URL-scan: https://polish.musicsources.pl/pl/lokalizacje/galeria/rekopisy/5914-2-sacred-songs/1 @EN{Scan on Polish Music Sources Website} @PL{Skany w portalu Dziedzictwo Muzyki Polskiej w otwartym dostępie}
!!!IIIF:
!!!ONB-nifc: UWAGA: Zbiór zawiera: 1. Tollite portas i 2. Alleluia ave Maria. Proszę uwzględnić także partię Basso Ripieno.
!!!OMD:
!!!AIN: 1 alto 2 bass 1 canto 1 tenor
!!!key: F:lyd
**kern	**text	**kern	**text	**kern	**text	**kern	**text	**kern	**text
*part5	*part5	*part4	*part4	*part3	*part3	*part2	*part2	*part1	*part1
*staff5	*staff5	*staff4	*staff4	*staff3	*staff3	*staff2	*staff2	*staff1	*staff1
*I"Baſso Ripieno.	*	*I"Baſso.	*	*I"Tenore	*	*I"Alto.	*	*I"Canto.	*
*I'B rip	*	*I'B	*	*I'T	*	*I'A	*	*I'S	*
*Ibass	*	*Ibass	*	*Itenor	*	*Ialto	*	*Icanto	*
*ICvox	*	*ICvox	*	*ICvox	*	*ICvox	*	*ICvox	*
*clefF4	*	*clefF4	*	*clefC4	*	*clefC3	*	*clefC1	*
*k[b-]	*	*k[b-]	*	*k[b-]	*	*k[b-]	*	*k[b-]	*
*F:lyd	*	*F:lyd	*	*F:lyd	*	*F:lyd	*	*F:lyd	*
*M3/2	*	*M3/2	*	*M3/2	*	*M3/2	*	*M3/2	*
=1	=1	=1	=1	=1	=1	=1	=1	=1	=1
*	*	*	*	*2\right	*	*2\right	*	*2\right	*
!	!	!	!	!LO:TX:a:t=Graduale	!	!LO:TX:a:t=Graduale	!	!LO:TX:a:t=Graduale	!
(4F\	Tol-	(4F\	Tol-	2.c\	Tol-	2.f\	Tol-	2.a\	Tol-
4E\	.	4E\	.	.	.	.	.	.	.
4F\	.	4F\	.	.	.	.	.	.	.
4G\)	.	4G\)	.	4c\	-li-	4f\	-li-	4a\	-li-
4A\	.	4A\	.	2c\	-te	2f\	-te	2a\	-te
4B-\	.	4B-\	.	.	.	.	.	.	.
=2	=2	=2	=2	=2	=2	=2	=2	=2	=2
*2\right	*	*2\right	*	*	*ij	*	*ij	*	*ij
2.c\	.	2.c\	.	2.c\	Tol-	2.e\	Tol-	2.g/	Tol-
4c\	-li-	4c\	-li-	4c\	-li-	4e\	-li-	4g/	-li-
2c\	-te	2c\	-te	2c\	-te	2e\	-te	2g/	-te
*	*	*	*	*	*Xij	*	*Xij	*	*Xij
=3	=3	=3	=3	=3	=3	=3	=3	=3	=3
1B-X	por-	1B-X	por-	1c	por-	1e	por-	1g	por-
2B-\	-tas	2B-,<\	-tas	2c\	-tas	2e\	-tas	2g/	-tas
=4	=4	=4	=4	=4	=4	=4	=4	=4	=4
2.A\	Prin-	2.A\	Prin-	2.c\	Prin-	2.f\	Prin-	2.cc\	Prin-
4A\	-ci-	4A\	-ci-	4c\	-ci-	4f\	-ci-	4cc\	-ci-
2B-\	-pes	2B-\	-pes	2B-X\	-pes	2f\	-pes	2dd\	-pes
=5	=5	=5	=5	=5	=5	=5	=5	=5	=5
*	*ij	*	*ij	*	*ij	*	*ij	*	*ij
2.G\	Prin-	2.G\	Prin-	2.G/	Prin-	2.e\	Prin-	2.b-X\	Prin-
4G\	-ci-	4G\	-ci-	4G/	-ci-	4e\	-ci-	4b-\	-ci-
2F,<\	-pes	2F\	-pes	2A/	-pes	2f\	-pes	2a\	-pes
*	*Xij	*	*Xij	*	*Xij	*	*Xij	*	*Xij
=6	=6	=6	=6	=6	=6	=6	=6	=6	=6
2D/	Ve-	(2D/	Ve-	2F/	Ve-	(2f\	Ve-	(2bn\	Ve-
2C/	.	2C/)	.	1G	.	2e\)	.	2cc\)	.
2G\	.	2G\	.	.	.	2d\	.	2bn,<\	-stras
=7	=7	=7	=7	=7	=7	=7	=7	=7	=7
2C/	-stras	2C/	-stras	2G/	-stras	2e\	-stras	(4g/	et
.	.	.	.	.	.	.	.	4f/)	.
2r	.	2r	.	2r	.	2r	.	(4g/	e-
.	.	.	.	.	.	.	.	4a/)	.
2r	.	2r	.	2r	.	2r	.	(4bn/	-le-
.	.	.	.	.	.	.	.	4g/)	.
=8	=8	=8	=8	=8	=8	=8	=8	=8	=8
(4C/	et	(4C/	et	2en\	et	2g\	et	2.cc\	-va-
4BBn/)	.	4BBn/)	.	.	.	.	.	.	.
(4C/	e-	(4C/	e-	2e\	e-	2g\	e-	.	.
4D/)	.	4D/)	.	.	.	.	.	4cc\	-mi-
(4E/	-le-	(4E/	-le-	2e\	-le-	2g\	-le-	2cc\	-ni
4C/)	.	4C/)	.	.	.	.	.	.	.
!LO:LB:g=original	!	!	!	!	!	!	!	!	!
=9	=9	=9	=9	=9	=9	=9	=9	=9	=9
2.G\	-va-	2.G\	-va-	2.d\	-va-	2.g\	-va-	1bn	por-
4G\	-mi-	4G\	-mi-	4d\	-mi-	4g\	-mi-	.	.
2G\	-ni	2G\	-ni	2d\	-ni	2g\	-ni	2b\	-tae
*	*	*	*	*custos:c	*	*	*	*	*
!	!	!LO:LB:g=original	!	!LO:LB:g=original	!	!	!	!	!
=10	=10	=10	=10	=10	=10	=10	=10	=10	=10
*	*	*	*	*	*	*	*	*	*ij
2E\	por-	2E\	por-	2c\	po-	2g\	por-	2cc\	por-
2E,<\	-tae	2E\	-tae	2c,<\	-tae	2g,<\	-tae	2cc,<\	-tae
*	*	*	*	*	*	*	*	*	*Xij
2F\	ae-	2F\	ae-	2A/	ae-	2f\	ae-	2cc\	ae-
!	!	!	!	!	!	!LO:LB:g=original	!	!LO:LB:g=original	!
=11	=11	=11	=11	=11	=11	=11	=11	=11	=11
2D\	-ter-	2D\	-ter-	2A/	-ter-	2f\	-ter-	2bn\	-ter-
1E	-na-	1E	-na-	2A/	-na-	1e	-na-	1b	-na-
.	.	.	.	2G#X/	.	.	.	.	.
=12	=12	=12	=12	=12	=12	=12	=12	=12	=12
2AA,</	-les	2C,</	-les	2A,</	-les	2e,<\	-les	2a,<\	-les
(2A\	et	2A\	et	(2c\	et	1e	et	(2a\	et
2G\)	.	2Gn\	.	2B-X\)	.	.	.	2b-X\)	.
=13	=13	=13	=13	=13	=13	=13	=13	=13	=13
1F	in-	1F	in-	1A	in-	1f	in-	1cc	in-
2G\	-tro	2G\	-tro	2B-\	-tro	2e\	-tro-	2b-X\	-tro
=14	=14	=14	=14	=14	=14	=14	=14	=14	=14
2A\	i-	2A\	i-	2c\	i-	2e\	-i-	2a\	i-
2A,<\	-bit	2A\	-bit	2c\	-bit	2a,<\	-bit	2cc\	-bit
2B-\	Rex	2B-X\	Rex	2d\	Rex	(4g\	Rex	4b-X\	Rex
.	.	.	.	.	.	4f\)	.	4a\	.
=15	=15	=15	=15	=15	=15	=15	=15	=15	=15
1c	glo-	1c	Glo-	1c	Glo-	1f	glo-	1g	glo-
2C/	-ri-	2C/	-ri-	2c\	-ri-	2e\	-ri-	2g/	-ri-
=16	=16	=16	=16	=16	=16	=16	=16	=16	=16
1.F	-ae	1.F	-ae	1.c	-ae	1.f	-ae.	1.a	-ae.
=17||	=17||	=17||	=17||	=17||	=17||	=17||	=17||	=17||	=17||
[2C/	Quis	1C	Quis	1e	Quis	1g	Quis	1cc	Quis
2C/]	.	.	.	.	.	.	.	.	.
2D/	as-	2D/	as-	2d\	as-	2fn\	as-	2bn\	as-
=18	=18	=18	=18	=18	=18	=18	=18	=18	=18
2E\	-cend-	2E\	-cen-	2c\	-cen-	2g\	-cen-	2cc\	-cen-
2G,<\	-et	2G\	-det	2d\	-det	2g\	-det	2bn\	-det
2A\	in	2A\	in	2A/	in	2fn\	in	2cc\	in
=19	=19	=19	=19	=19	=19	=19	=19	=19	=19
1Bn	mon-	1Bn	mon-	1d	mon-	1g	mon-	1dd	Mon-
2c\	-tem	2c\	-tem	2c\	-tem	2g\	-tem	2ee\	-tem
!LO:LB:g=original	!	!LO:LB:g=original	!	!	!	!	!	!	!
=20	=20	=20	=20	=20	=20	=20	=20	=20	=20
1c	Do-	1c	Do-	1A	Do-	1fn	Do-	1dd	Do-
2Bn\	-mi-	2Bn\	-mi-	2G/	-mi-	2f\	-mi-	2dd\	-mi-
=21	=21	=21	=21	=21	=21	=21	=21	=21	=21
2c,<\	-ni	2c,<\	-ni	2G,</	-ni	2e,<\	-ni	2cc,<\	-ni
2Bn\	aut	2Bn,<\	aut	2G,</	aut	2g,<\	aut	2dd,<\	aut
2c\	quis	2c\	quis	2G/	quis	2e\	quis	2ee,<\	quis
!	!	!	!	!LO:LB:g=original	!	!	!	!	!
=22	=22	=22	=22	=22	=22	=22	=22	=22	=22
2A\	sta-	2A\	sta-	2A\	sta-	2e\	sta-	2cc\	sta-
2A\	-bit	2A\	-bit	2A\	-bit	2e\	-bit	2cc\	-bit
2G#X\	in	2G#X\	in	2Bn\	in	2e\	in	2bn\	in
!	!	!	!	!	!	!LO:LB:g=original	!	!LO:LB:g=original	!
=23	=23	=23	=23	=23	=23	=23	=23	=23	=23
2.A\	lo-	2.A\	lo-	2.A/	lo-	2.e\	lo-	2.cc\	lo-
4E\	-co	4E\	-co	4G#X/	-co	4e\	-co	4cc\	-co
2F\	san-	2F\	san-	2A/	san-	2c/	san-	2cc\	san-
=24	=24	=24	=24	=24	=24	=24	=24	=24	=24
2D\	-cto	2D\	-cto	2A,</	-cto	2f\	-cto	4dd\	-cto
.	.	.	.	.	.	.	.	4cc\	.
1E	e-	1E	e-	2A/	e-	1e	e-	1bn	e-
.	.	.	.	2G#X/	.	.	.	.	.
=25	=25	=25	=25	=25	=25	=25	=25	=25	=25
1.AA	-jus	1.AA	-jus.	1.A	-jus.	1.e	-jus	1.cc#X	-jus.
=26||	=26||	=26||	=26||	=26||	=26||	=26||	=26||	=26||	=26||
2.D\	In-	2.D/	In-	2.d\	In-	2.f\	In-	2.a\	In-
4D\	-no-	4D/	-no-	4d\	-no-	4f\	-no-	4a\	-no-
2D\	-cens	2D/	-cens	2d\	-cens	2f\	-cens	2a\	-cens
=27	=27	=27	=27	=27	=27	=27	=27	=27	=27
*	*ij	*	*	*	*	*	*	*	*
2.A\	In-	2.A\	ma-	2.c#X\	ma-	2.e\	ma-	2.a\	ma-
4A\	-no-	4A\	-ni-	4c#\	-ni-	4e\	-ni-	4a\	-ni-
2A\	-cens	2A\	-bus	2c#,<\	-bus	2e\	-b(us)	2a,<\	-b(us)
=28	=28	=28	=28	=28	=28	=28	=28	=28	=28
2.d\	In-	2.d\	In-	2.d\	in-	2.f\	in-	2.a\	in-
4d\	-no-	4d\	-no-	4d\	-no-	4f\	-no-	4a\	-no-
2c\	-cens	2c\	-cens	2e\	-cens	2e\	-cens	2a\	-cens
*	*Xij	*	*	*	*	*	*	*	*
!LO:LB:g=original	!	!	!	!	!	!	!	!	!
=29	=29	=29	=29	=29	=29	=29	=29	=29	=29
1B-	ma-	1B-X	ma-	1d	ma-	1f	ma-	1a	ma-
2B-\	-ni-	2B-\	-ni-	2d\	-ni-	2d\	-ni-	2g/	-ni-
*	*	*custos:A	*	*	*	*	*	*	*
!	!	!LO:LB:g=original	!	!	!	!	!	!	!
=30	=30	=30	=30	=30	=30	=30	=30	=30	=30
2A\	-bus	2A\	-bus	2c#X\	-bus	2e\	-bus	2a,<\	-bus
2r	.	2r	.	2r	.	2r	.	(2f/	et
2r	.	2r	.	2r	.	2r	.	2g/)	.
=31	=31	=31	=31	=31	=31	=31	=31	=31	=31
00.r	.	00.r	.	0.r	.	1.r	.	2a\	mun-
.	.	.	.	.	.	.	.	2g/	.
.	.	.	.	.	.	.	.	2f/	-do
=32	=32	=32	=32	=32	=32	=32	=32	=32	=32
*	*	*	*	*	*	*	*	*	*ij
.	.	.	.	.	.	2r	.	1cc	mun-
.	.	.	.	.	.	(2c/	et	.	.
.	.	.	.	.	.	2d/)	.	2bn\	-do
*	*	*	*	*	*	*	*	*	*Xij
=33	=33	=33	=33	=33	=33	=33	=33	=33	=33
.	.	.	.	1.r	.	(2e\	mun-	[<1.cc	cor-
.	.	.	.	.	.	2d\)	.	.	.
.	.	.	.	.	.	2c\	-do	.	.
=34	=34	=34	=34	=34	=34	=34	=34	=34	=34
*	*	*	*	*	*	*	*ij	*	*
.	.	.	.	2r	.	1f	mun-	2cc,<\]	de
*	*	*	*	*	*	*	*	*custos:cc	*
!	!	!	!	!	!	!	!	!LO:LB:g=original	!
=-	=-	=-	=-	=-	=-	=-	=-	=-	=-
.	.	.	.	2F/	et	.	.	(2cc\	et
.	.	.	.	2G/	.	2e\	-do	2b-X\)	.
*	*	*	*	*custos:A	*	*	*Xij	*	*
!	!	!	!	!LO:LB:g=original	!	!	!	!	!
=35	=35	=35	=35	=35	=35	=35	=35	=35	=35
1.r	.	1.r	.	(2A/	mun-	1f	cor-	1.a	mun-
.	.	.	.	2G/)	.	.	.	.	.
.	.	.	.	2F/	-do	2f\	-de	.	.
!	!	!	!	!	!	!LO:LB:g=original	!	!	!
=36	=36	=36	=36	=36	=36	=36	=36	=36	=36
2r	.	2r	.	1c	cor-	2r	.	1.g	-do
2C/	et	2C/	et	.	.	(2g\	et	.	.
2D/	.	2D/	.	2Bn\	.	2f\)	.	.	.
=37	=37	=37	=37	=37	=37	=37	=37	=37	=37
(2E\	mun-	(2E\	mun-	2c,<\	-de	(2e\	mun-	1.cc	cor-
2D\)	.	2D/)	.	2d\	et	2f\)	.	.	.
2C/	-do	2C/	-do	2e\	.	2g\	-do	.	.
=38	=38	=38	=38	=38	=38	=38	=38	=38	=38
*	*ij	*	*	*	*	*	*	*	*
1F	mun-	1F	cor-	1f	mun-	1a	cor-	1.cc	-de
2E\	-do	2E,<\	-de	2c\	-do	2g,<\	-de	.	.
=39	=39	=39	=39	=39	=39	=39	=39	=39	=39
*	*	*	*	*	*ij	*	*	*	*
1F	mun-	1F	mun-	1c	mun-	1a	mun-	1.cc	mun-
2E\	-do	2E\	-do	2G/	-do	2g\	-do	.	.
*	*Xij	*	*	*	*Xij	*	*	*	*
=40	=40	=40	=40	=40	=40	=40	=40	=40	=40
1.D	cor-	1.D	cor-	(<1A	cor-	1.fT	cor-	2cc\	-do
.	.	.	.	.	.	.	.	2cc\	cor-
.	.	.	.	2F/)	.	.	.	2bn\	.
=41	=41	=41	=41	=41	=41	=41	=41	=41	=41
2C,</	-de	2C,</	-de	2G,</	-de	2e,<\	-de	2cc,<\	-de
2c\	et	2c\	et	1G	et	1e	et	1cc	et
2B-\	.	2B-X\	.	.	.	.	.	.	.
=42	=42	=42	=42	=42	=42	=42	=42	=42	=42
(2A\	mun-	2A\	mun-	(2A\	mun-	(2f\	mun-	2cc\	mun-
2G\)	.	2G\	.	2B-\)	.	2e\)	.	2b-X\	.
2F\	-do	2F\	-do	2c\	-do	2f\	-do	2a\	-do
=43	=43	=43	=43	=43	=43	=43	=43	=43	=43
*	*ij	*	*	*	*	*	*ij	*	*ij
1B-X	mun-	1B-	cor-	2F/	mun-	(2d\	mun-	2b-\	mun-
.	.	.	.	2G/	.	2e\)	.	1cc	-do
*	*	*	*	*	*	*	*	*	*Xij
2A\	-do	2A\	-de	2A/	-do	2f\	-do	.	.
*	*Xij	*	*	*	*	*	*Xij	*	*
!LO:LB:g=original	!	!	!	!	!	!	!	!	!
=44	=44	=44	=44	=44	=44	=44	=44	=44	=44
(2B-\	mun-	(2B-\	mun-	2B-\	Cor-	(2f\	Cor-	2dd\	cor-
2c\)	.	2c\)	.	4A/	.	2e\)	.	(4cc\	.
.	.	.	.	4G/	.	.	.	4b-\)	.
2d\	-do	2d\	-do	2F/	.	2f\	.	2a\	.
!	!	!	!	!LO:LB:g=original	!	!	!	!	!
=45	=45	=45	=45	=45	=45	=45	=45	=45	=45
2B-\	cor-	2B-\	cor-	4B-\	.	1f	.	2dd\	.
.	.	.	.	4A\	.	.	.	.	.
2c\	.	2c\	.	1G	.	.	.	1cc	.
2C/	.	2C/	.	.	.	2e\	.	.	.
*	*	*custos:F	*	*	*	*	*	*custos:cc	*
!	!	!LO:LB:g=original	!	!	!	!	!	!LO:LB:g=original	!
=46	=46	=46	=46	=46	=46	=46	=46	=46	=46
2F,<\	-de	2F\	-de	2A,</	-de	2f,<\	-de	2cc,<\	-de
2BBn/	mun-	2BBn/	mun-	2d\	mun-	2f\	mun-	2g/	mun-
2BB/	-do	2BB/	-do	2d\	-do	2f\	-do	2g/	-do
!	!	!	!	!	!	!LO:LB:g=original	!	!	!
=47	=47	=47	=47	=47	=47	=47	=47	=47	=47
[1.C	cor-	1.C	cor-	[<1.c	cor-	1e	cor-	1g	cor-
.	.	.	.	.	.	[<2f\	.	2a\	.
=48	=48	=48	=48	=48	=48	=48	=48	=48	=48
1.C]	.	1.C	.	1.c]	.	1f]	.	1.g	.
.	.	.	.	.	.	2e\	.	.	.
=49	=49	=49	=49	=49	=49	=49	=49	=49	=49
0.FF;	-de.	0.FF;	-de.	0.c;	-de.	0.f;	-de.	0.a;	-de.
=50	=50	=50	=50	=50	=50	=50	=50	=50	=50
.	.	.	.	.	.	.	.	.	.
=51||	=51||	=51||	=51||	=51||	=51||	=51||	=51||	=51||	=51||
2F\	Al-	2F\	Al-	2c\	Al-	2f\	Al-	2a\	Al-
2A\	-le-	2A\	-le-	2c\	-le-	2f\	-le-	2a\	-le-
2F\	-lu-	2F\	-lu-	2c\	-lu-	2f\	-lu-	2a\	-lu-
=52	=52	=52	=52	=52	=52	=52	=52	=52	=52
2c\	-ia	2c\	-ia	1c,<	-ia	1e,<	-ia	1g	-ia
2E\	.	2E/	.	.	.	.	.	.	.
*	*ij	*	*	*	*ij	*	*	*	*
2C/	Al-	2C/	al-	2c\	Al-	2g\	al-	2cc\	al-
=53	=53	=53	=53	=53	=53	=53	=53	=53	=53
2F\	-le-	2F\	.	2A/	-le-	4f\	-le-	1cc	-le-
.	.	.	.	.	.	4e\	.	.	.
2G\	-lu-	2G\	-le-	1G	-lu-	1d	-lu-	.	.
2GG/	.	2GG/	-lu-	.	.	.	.	2bn\	-lu-
*custos:C	*	*	*	*	*	*	*	*	*
!LO:LB:g=original	!	!	!	!	!	!	!	!	!
=54	=54	=54	=54	=54	=54	=54	=54	=54	=54
2C,</	-ia	2C,</	-ia	4G,</	-ia	4e,<\	-ia	2cc\	-ia
*	*Xij	*	*	*	*Xij	*	*	*	*
.	.	.	.	4G/	al-	4e\	al-	.	.
4c\	al-	4c\	al-	2G/	-le-	2e\	-le-	4een\	al-
4d\	.	4d\	.	.	.	.	.	4ff\	.
4B-\	.	4B-X\	.	2G/	-lu-	2e\	-lu-	4dd\	.
4c\	.	4c\	.	.	.	.	.	4ee\	.
*	*	*	*	*custos:A	*	*	*	*	*
!	!	!	!	!LO:LB:g=original	!	!	!	!	!
=55	=55	=55	=55	=55	=55	=55	=55	=55	=55
1.A	.	1.A	.	4A/	-ia	4f\	-ia	1.cc	.
.	.	.	.	4G/	.	4e\	.	.	.
.	.	.	.	4A/	.	4f\	.	.	.
.	.	.	.	4B-/	.	4g\	.	.	.
.	.	.	.	4G/	.	4e\	.	.	.
.	.	.	.	4A/	.	4f\	.	.	.
=56	=56	=56	=56	=56	=56	=56	=56	=56	=56
(4B-X\	.	4B-X\	.	1.F	.	1.d	.	4dd\	.
4A\	.	4A\	.	.	.	.	.	4cc\	.
4B-\	.	4B-\	.	.	.	.	.	4dd\	.
4c\)	.	4c\	.	.	.	.	.	4ee-X\	.
4A\	.	4A\	.	.	.	.	.	4cc\	.
4B-\	.	4B-\	.	.	.	.	.	4dd\	.
!	!	!LO:LB:g=original	!	!	!	!	!	!LO:LB:g=original	!
=57	=57	=57	=57	=57	=57	=57	=57	=57	=57
1.G	.	1.G	.	4B-\	.	4g\	.	1.b-	.
.	.	.	.	4A\	.	4f\	.	.	.
.	.	.	.	4B-\	.	4g\	.	.	.
.	.	.	.	4c\	.	4a\	.	.	.
.	.	.	.	4A\	.	4f\	.	.	.
.	.	.	.	4B-\	.	4g\	.	.	.
!	!	!	!	!	!	!LO:LB:g=original	!	!	!
=58	=58	=58	=58	=58	=58	=58	=58	=58	=58
(4c\	.	4c\	.	1.G	.	4e\	.	2cc\	.
4B-\	.	4B-X\	.	.	.	4d\	.	.	.
4c\	.	4c\	.	.	.	4e\	.	2cc\	-le-
4d\)	.	4d\	.	.	.	4f\	.	.	.
4B-\	.	4B-\	.	.	.	4d\	.	2cc\	-lu-
4c\	.	4c\	.	.	.	4e\	.	.	.
=59	=59	=59	=59	=59	=59	=59	=59	=59	=59
(4A\	.	4A\	.	[<1.A	al-	2f\	.	4cc\	-ia
4G\	.	4G\	.	.	.	.	.	4b-\	.
4A\	.	4A\	.	.	.	2f\	al-	4cc\	.
4B-\)	.	4B-\	.	.	.	.	.	4dd\	.
4G\	.	4G\	.	.	.	2f\	-le-	4b-\	.
4A\	.	4A\	.	.	.	.	.	4cc\	.
=60	=60	=60	=60	=60	=60	=60	=60	=60	=60
(4F\	.	4F\	.	4A/]	.	1.f	-lu-	1.a	.
4E\	.	4E\	.	4G/	.	.	.	.	.
4F\	.	4F\	.	4A/	.	.	.	.	.
4G\)	.	4G\	.	4B-/	.	.	.	.	.
4E\	.	4E\	.	4G/	.	.	.	.	.
4F\	.	4F\	.	4A/	.	.	.	.	.
=61	=61	=61	=61	=61	=61	=61	=61	=61	=61
(4D/	.	4D/	.	1.F	.	4f\	-ia	2a\	al-
4C/	.	4C/	.	.	.	4e\	.	.	.
4D/	.	4D/	.	.	.	4f\	.	2a\	-le-
4E/	.	4E/	.	.	.	4g\	.	.	.
4C/	.	4C/	.	.	.	4e\	.	2a\	-lu-
4D/)	.	4D/	.	.	.	4f\	.	.	.
=62	=62	=62	=62	=62	=62	=62	=62	=62	=62
4BB-/	.	4BB-/	.	4d\	.	2d\	al-	2g,</	-ia
(4AA/	.	4AA/	.	4c\	.	.	.	.	.
*	*	*	*	*	*	*	*	*	*ij
4BB-/	.	4BB-/	.	4d\	.	1f	.	2g/	al-
4C/	.	4C/	.	4e-X\	.	.	.	.	.
4AA/)	.	4AA/	.	4c\	.	.	.	2g/	-le-
4BB-/	.	4BB-/	.	4d\	.	.	.	.	.
=63	=63	=63	=63	=63	=63	=63	=63	=63	=63
1GG	.	1GG	.	1B-	.	1e	.	2g/	-lu-
.	.	.	.	.	.	.	.	2g,</	-ia
*	*	*	*	*	*	*	*	*	*Xij
2FF/	.	2FF/	.	2A\	.	[<2f\	.	2cc\	al-
!LO:LB:g=original	!	!	!	!	!	!	!	!	!
=64	=64	=64	=64	=64	=64	=64	=64	=64	=64
2BB-/	.	2BB-/	.	2d\	.	2f\]	.	4b-\	-le-
.	.	.	.	.	.	.	.	4a\	.
2C/	-le-	2C/	-le-	2c\	-le-	2f\	-le-	1g	-lu-
2C/	-lu-	2C/	-lu-	2c\	-lu-	2e\	-lu-	.	.
=65	=65	=65	=65	=65	=65	=65	=65	=65	=65
!LO:N:vis=0F;	!	!LO:N:vis=0FF;	!	!	!	!	!	!	!
1.F;	-ia	1.FF;	-ia.	1.c	-ia.	1.f	-ia.	1.a	-ia.
*	*	*custos:D	*	*	*	*	*	*	*
!	!	!LO:LB:g=original	!	!LO:LB:g=original	!	!	!	!	!
=66||	=66||	=66||	=66||	=66||	=66||	=66||	=66||	=66||	=66||
2D\	A-	2D\	A-	2d\	A-	2f\	A-	2a\	A-
2D\	-ve	2D\	-ve	2d\	-ve	2f\	-ve	2a\	-ve
2E\	Ma-	2E\	Ma-	2c\	Ma-	2e\	Ma-	2g/	Ma-
=67	=67	=67	=67	=67	=67	=67	=67	=67	=67
2.F\	-ri-	(2.F\	-ri-	1A	-ri-	(2.d\	-ri-	(2.f/	-ri-
4E\	.	4E\)	.	.	.	4e\)	.	4g/)	.
2D,<\	-a	2D/	-a	2d\	-a	2f\	-a	2a\	-a
!	!	!	!	!	!	!LO:LB:g=original	!	!LO:LB:g=original	!
=68	=68	=68	=68	=68	=68	=68	=68	=68	=68
*	*ij	*	*ij	*	*ij	*	*	*	*
2G\	A-	2G\	A-	2B-X\	A-	2e\	A-	2g/	A-
2.G#X\	-ve	2.G#X\	-ve	2.Bn\	-ve	2.d\	-ve	2.f/	-ve
4G#\	Ma-	4G#\	Ma-	4B\	Ma-	4e\	Ma-	4f/	Ma-
=69	=69	=69	=69	=69	=69	=69	=69	=69	=69
1A	-ri-	1A	-ri-	1A	-ri-	1c#X	-ri-	1e	-ri-
2D,</	-a	2D/	a	2A/	-a	2d\	-a	2f/	-a
*	*Xij	*	*Xij	*	*Xij	*	*	*	*
=70	=70	=70	=70	=70	=70	=70	=70	=70	=70
2.B-\	gra-	2.B-\	gra-	2.d\	gra-	2.g\	gra-	2.g\	gra-
4B-\	-ti-	4B-\	-ti-	4d\	-ti-	4g\	-ti-	4g\	-ti-
2A\	-a	2A\	-a	2c\	-a	2f\	-a	2a\	-a
=71	=71	=71	=71	=71	=71	=71	=71	=71	=71
1G	ple-	1G	ple-	1B-X	ple-	2e-X\	ple-	1b-	ple-
.	.	.	.	.	.	2d\	.	.	.
2A\	-na	2A\	-na	2en\	-na	2c#X/	-na	2a\	-na
!LO:LB:g=original	!	!	!	!	!	!	!	!	!
=72	=72	=72	=72	=72	=72	=72	=72	=72	=72
2.B-\	Do-	2.B-\	Do-	2.d\	Do-	2.d\	Do-	2.g\	Do-
4A\	-mi-	4A\	-mi-	4d\	-mi-	4d\	-mi-	4a\	-mi-
2G\	-n(us)	2G\	-n(us)	2d\	-n(us)	2g\	-n(us)	2b-\	-n(us)
=73	=73	=73	=73	=73	=73	=73	=73	=73	=73
1A	Te-	1A	Te	1d	Te-	1.e	Te-	1.a	Te-
2AA/	.	2AA/	cum	2c#X\	.	.	.	.	.
=74	=74	=74	=74	=74	=74	=74	=74	=74	=74
2D,<\	-cum	2D,</	.	2d,<\	-cum	2f,<\	-cum	2a,<\	-cum
2d\	be-	2d\	be-	2d\	be-	2f\	be-	2a\	be-
!	!	!	!	!	!	!	!	!LO:TX:a:t=P:problem=♭ above	!
2d\	-ne-	2d\	-ne-	2d\	-ne-	2f\	-ne-	2b-\	-ne-
!	!	!	!	!LO:PB:g=original	!	!	!	!	!
=75	=75	=75	=75	=75	=75	=75	=75	=75	=75
2c\	-dic-	2c\	-dic-	2G/	-dic-	2e\	-dic-	2b-\	-dic-
2c\	-ta	2c\	-ta	2c\	-ta	2e\	-ta	2a\	-ta
2c\	Tu	2c\	Tu	2c\	Tu	2e\	Tu	2a\	Tu
=76	=76	=76	=76	=76	=76	=76	=76	=76	=76
2B-X\	in	2B-X\	in	2F/	in	2f\	in	2a\	in
2B-\	mu-	2B-\	mu-	2B-\	mu-	2g\	mu-	2g/	mu-
2B-\	-li-	2B-\	-li-	2B-\	-li-	2g\	-li-	2dd\	-li-
!	!	!LO:PB:g=original	!	!	!	!	!	!	!
=77	=77	=77	=77	=77	=77	=77	=77	=77	=77
1A	-e-	1A	-e-	1E	-e-	2g\	-e-	1cc	-e-
.	.	.	.	.	.	2.fT\	.	.	.
2A\	-ri-	2A\	-ri-	2A/	-ri-	.	.	2cc\	-ri-
.	.	.	.	.	.	4f\	-ri-	.	.
*	*	*	*	*	*	*	*	*custos:b-	*
!	!	!	!	!	!	!LO:PB:g=original	!	!LO:PB:g=original	!
=78	=78	=78	=78	=78	=78	=78	=78	=78	=78
1G,<	-bus	1G,<	-bus	1d,<	-bus	(2f\	-bus	1b-X	-bus
.	.	.	.	.	.	2e\)	.	.	.
2C/	in	2C/	in	[2e\	in	2g\	in	2cc\	in
=79	=79	=79	=79	=79	=79	=79	=79	=79	=79
1F	mu-	1F	mu-	2e\]	.	1f	mu-	1cc	mu-
.	.	.	.	2d\	mu-	.	.	.	.
2D\	-li-	2D/	-li-	2d\	-li-	2f\	-li-	2bn\	-li-
=80	=80	=80	=80	=80	=80	=80	=80	=80	=80
1E	-e-	1E	-e-	1d	-e-	1e	-e-	1bn	-e-
2F\	.	2F\	.	2c\	.	2a\	.	[<2a\	.
!LO:LB:g=original	!	!	!	!	!	!	!	!	!
=81	=81	=81	=81	=81	=81	=81	=81	=81	=81
2D\	.	2D\	.	1Bn	.	2f\	.	1a]	.
2E\	.	2E\	.	.	.	2.e\	.	.	.
2EE/	-ri-	2EE/	-ri-	2B\	-ri-	.	.	2g#X/	-ri-
.	.	.	.	.	.	4e\	-ri-	.	.
=82	=82	=82	=82	=82	=82	=82	=82	=82	=82
2AA,</	-bus	2AA,</	-bus	2c#X,<\	-bus	2e,<\	-bus	2a,<\	-bus
2A\	et	2A\	et	2cn\	et	2f#X\	et	2a\	et
4A\	be-	4A\	be-	4c\	be-	4f#\	be-	4a\	be-
4G\	-ne-	4G\	-ne-	4c\	-ne-	4g\	-ne-	4b-X\	-ne-
=83	=83	=83	=83	=83	=83	=83	=83	=83	=83
1F#X	-dic-	1F#X	-dic-	2c\	-dic-	1a	-dic-	2cc\	-dic-
.	.	.	.	1A	-tus	.	.	(4dd\	-tus
.	.	.	.	.	.	.	.	4cc\	.
2F#\	-t(us)	2F#\	-t(us)	.	.	2a\	-t(us)	4dd\)	.
.	.	.	.	.	.	.	.	4cc\	.
=84	=84	=84	=84	=84	=84	=84	=84	=84	=84
1G	Fruc-	1G	Fruc-	1d	Fruc-	1g	Fruc-	1bn	Fruc-
2G\	-t(us)	2G\	-tus	2d\	-t(us)	2g\	-t(us)	2b\	-tus
!	!	!	!	!LO:LB:g=original	!	!	!	!	!
=85	=85	=85	=85	=85	=85	=85	=85	=85	=85
*	*ij	*	*ij	*	*	*	*ij	*	*ij
1E	Fruc-	1E	Fruc-	1G	Ven-	1g	Fruc-	1cc	Fruc-
2E\	-t(us)	2E\	-tus	2c\	-tris	2g\	-t(us)	2cc,<\	-tus
*	*Xij	*	*Xij	*	*	*	*Xij	*	*Xij
=86	=86	=86	=86	=86	=86	=86	=86	=86	=86
(4F\	Ven-	(4F\	Ven-	4A\	Ven-	1fn	Ven-	1cc	Ven-
4E\	.	4E\	.	4G\	.	.	.	.	.
4F\	.	4F\	.	4A\	.	.	.	.	.
4G\)	.	4G\)	.	4B-\	.	.	.	.	.
4A\	.	4A\	.	4c\	.	2f\	-tris	2cc\	-tris
4F\	.	4F\	.	4A/	.	.	.	.	.
!	!	!LO:LB:g=original	!	!	!	!	!	!	!
=87	=87	=87	=87	=87	=87	=87	=87	=87	=87
2.B-\	.	2.B-\	.	2.d\	.	(1f	Ven-	1.b-X	Ven-
4A\	.	4A\	.	4c\	.	.	.	.	.
2G\	.	2G\	.	2B-\	.	2e\)	.	.	.
=88	=88	=88	=88	=88	=88	=88	=88	=88	=88
2F,<\	-tris	2F,<\	-tris	2A/	-tris	2f,<\	-tris	2cc\	-tris
2c\	Tu-	2c\	Tu-	1G	Tu-	(2f\	Tu-	1cc	tu-
2C/	.	2C/	.	.	.	2e\)	.	.	.
*custos:F	*	*	*	*	*	*	*	*custos:cc	*
!LO:PB:g=original	!	!	!	!	!	!LO:LB:g=original	!	!LO:LB:g=original	!
=89	=89	=89	=89	=89	=89	=89	=89	=89	=89
2F,<\	-i	2F\	-i	2A,</	-i	2f,<\	-i.	2cc,<\	-i.
(4F\	al-	(4F\	al-	(4A/	al-	1f	Al-	2cc\	al-
4G\)	.	4G\)	.	4B-/)	.	.	.	.	.
4E\|	-le-	4E\|	-le-	4G/	-le-	.	.	2cc\	-le-
4F\|	-lu-	4F\|	-lu-	4A/	-lu-	.	.	.	.
=90	=90	=90	=90	=90	=90	=90	=90	=90	=90
2D,</	-ia	2D,</	-ia	2F/	-ia	2f\	.	2dd\	-lu-
*	*ij	*	*	*	*	*	*	*	*
(4d\	al-	4d\	al-	1A	al-	4f\	.	1dd	-ia
4e\	.	4e\	.	.	.	4g\	.	.	.
4c\	.	4c\	.	.	.	4e\	.	.	.
4d\)	.	4d\	.	.	.	4f\	.	.	.
=91	=91	=91	=91	=91	=91	=91	=91	=91	=91
2B-X\	le-	2B-X\	.	[1.G	.	1.f	.	2dd\	al-
4B-\	-lu-	4B-\	.	.	.	.	.	4dd\	.
(4c\	.	4c\	.	.	.	.	.	4ee-X\	.
4A\	.	4A\	.	.	.	.	.	4cc\	.
4B-\)	.	4B-\	.	.	.	.	.	4dd\	.
=92	=92	=92	=92	=92	=92	=92	=92	=92	=92
1G,<	-ia	1G,<	.	1G]	.	1e	-le-	1b-X	.
*	*Xij	*	*	*	*	*	*	*	*
2F\	al-	2F\	.	2c\	-le-	[<2f\	.	2a\	.
=93	=93	=93	=93	=93	=93	=93	=93	=93	=93
2B-\	-le-	2B-\	-le-	(4B-\	-lu-	2f\]	.	2dd\	.
.	.	.	.	4A\)	.	.	.	.	.
2c\	-lu-	2c\	-lu-	1G	.	1e	-lu-	2cc\	-le-
2C/	.	2C/	.	.	.	.	.	2cc\	-lu-
=94	=94	=94	=94	=94	=94	=94	=94	=94	=94
2F,<\	-ia	2F,<\	-ia	4A,<\	-ia	4f,<\	-ia	2cc,<\	-ia
.	.	.	.	4A\	al-	4f\	al-	.	.
(4c\	al-	4c\	al-	2G/	-le-	2e\	-le-	4een\	al-
4d\	.	4d\	.	.	.	.	.	4ff\	.
4B-\	.	4B-X\	.	2G/	-lu-	2e\	-lu-	4dd\	.
4c\)	.	4c\	.	.	.	.	.	4ee\	.
!	!	!LO:LB:g=original	!	!LO:LB:g=original	!	!	!	!	!
=95	=95	=95	=95	=95	=95	=95	=95	=95	=95
1.A	.	1.A	.	4A/	-ia	4f\	-ia	1.cc	.
.	.	.	.	4G/	.	4e\	.	.	.
.	.	.	.	4A/	.	4f\	.	.	.
.	.	.	.	4B-/	.	4g\	.	.	.
.	.	.	.	4G/	.	4e\	.	.	.
.	.	.	.	4A/	.	4f\	.	.	.
*custos:B	*	*	*	*	*	*	*	*	*
!LO:LB:g=original	!	!	!	!	!	!	!	!	!
=96	=96	=96	=96	=96	=96	=96	=96	=96	=96
4B-\	.	4B-\	.	1.F	.	1.d	.	4dd\	.
4A\	.	4A\	.	.	.	.	.	4cc\	.
4B-\	.	4B-\	.	.	.	.	.	4dd\	.
4c\	.	4c\	.	.	.	.	.	4ee-X\	.
4A\	.	4A\	.	.	.	.	.	4cc\	.
4B-\	.	4B-\	.	.	.	.	.	4dd\	.
=97	=97	=97	=97	=97	=97	=97	=97	=97	=97
1.G	.	1.G	.	4B-\	.	4g\	.	1.b-X	.
.	.	.	.	4A\	.	4f\	.	.	.
.	.	.	.	4B-\	.	4g\	.	.	.
.	.	.	.	4c\	.	4a\	.	.	.
.	.	.	.	4A\	.	4f\	.	.	.
.	.	.	.	4B-\	.	4g\	.	.	.
=98	=98	=98	=98	=98	=98	=98	=98	=98	=98
4c\	.	4c\	.	1.G	al-	4e\	.	2cc\	.
4B-\	.	4B-\	.	.	.	4d\	.	.	.
4c\	.	4c\	.	.	.	4e\	.	2cc\	-le-
4d\	.	4d\	.	.	.	4f\	.	.	.
4B-\	.	4B-X\	.	.	.	4d\	.	2cc\	-lu-
4c\	.	4c\	.	.	.	4e\	.	.	.
*	*	*	*	*	*	*custos:f	*	*custos:cc	*
!	!	!	!	!	!	!LO:LB:g=original	!	!LO:LB:g=original	!
=99	=99	=99	=99	=99	=99	=99	=99	=99	=99
(4A\	.	4A\	.	1.A	.	2f\	al-	4cc\	-ia
4G\	.	4G\	.	.	.	.	.	4b-\	.
4A\	.	4A\	.	.	.	2f\	-le-	4cc\	.
4B-\)	.	4B-\	.	.	.	.	.	4dd\	.
4G\	.	4G\	.	.	.	2f\	-lu-	4b-\	.
4A\	.	4A\	.	.	.	.	.	4cc\	.
=100	=100	=100	=100	=100	=100	=100	=100	=100	=100
(4F\	.	4F\	.	1.c	.	1.f,<	-ia	1a,<	.
4E\	.	4E\	.	.	.	.	.	.	.
4F\	.	4F\	.	.	.	.	.	.	.
4G\)	.	4G\	.	.	.	.	.	.	.
4A\	.	4A\	.	.	.	.	.	2cc\	al-
4F\	.	4F\	.	.	.	.	.	.	.
=101	=101	=101	=101	=101	=101	=101	=101	=101	=101
*	*	*	*	*	*	*	*ij	*	*
2B-\	.	2B-\	.	2d\	.	2f\	al-	(4b-\	-le-
.	.	.	.	.	.	.	.	4a\)	.
2c\	-le-	2c\	-le-	2c\	-le-	2f\	-le-	1g	-lu-
2C/	-lu-	2C/	-lu-	2c\	-lu-	2e\	-lu-	.	.
=102	=102	=102	=102	=102	=102	=102	=102	=102	=102
2F,<\	-ia	2F,<\	-ia	2c\	-ia	2f,<\	-ia	2a,<\	-ia
*	*ij	*	*	*	*	*	*Xij	*	*
2B-\	al-	2B-\	al-	2B-X\	al-	2f\	al-	2dd\	al-
2A\	-le-	2A\	-le-	2c\	-le-	2f\	-le-	2cc\	-le-
=103	=103	=103	=103	=103	=103	=103	=103	=103	=103
1.B-	-lu-	1.B-	-lu-	1.B-	-lu-	1.f	-lu-	1.dd	-lu-
=104	=104	=104	=104	=104	=104	=104	=104	=104	=104
0.F;	-ia	0.F;	-ia.	1.c	-ia	0.f;	-ia.	0.cc;	-ia.
*	*Xij	*	*	*	*	*	*	*	*
=105	=105	=105	=105	=105	=105	=105	=105	=105	=105
.	.	.	.	1.ryy	.	.	.	.	.
==	==	==	==	==	==	==	==	==	==
*-	*-	*-	*-	*-	*-	*-	*-	*-	*-
!!!system-decoration: [(s1,s2,s3,s4,s5)]
!!!RDF**kern: < = below
!!!RDF**kern: > = above
!!!RDF**kern: | = vertical stroke
!!!ENC: Berenika Jozajtis
!!!END: 2023-11-19
!!!EED: Marta Chmielewska
!!!EEV: 2024-06-02
